X:533
T:Den blomstertid nu kommer
C:anon.
O:Denmark
Z:Transcribed by Frank Nordberg - http://www.musicaviva.com
F:http://abc.musicaviva.com/tunes/denmark/den-blomstertid-nu-kommer/den-blomstertid-nu-kommer-1.abc
M:4/4
L:1/4
K:C
"C"e|"Em"e"F"d"C/C"c"G"B|"Am F"c2"C"c"Am"e|"G"g"C"g"Dm"f"G7"f|"C"e3:|
"C"g|"F"a"C"g"Dm"f"C"e|"G D"d2"G"d"C"e|"F"ff"C"ee|"G"d3"G/B"d|
"C"e"G"d"Am"c"Em"B|"F Dm"A2"Am"A"G"G|"Am"A"F"c"Gsus4"c"G"B|"C"c3|]
W:
W:
W:  From Musica Viva - http://www.musicaviva.com
W:  the Internet center for free sheet music downloads.
